X:73
T:Joys of Quebec
C:French Canadian
M:4/4
% K:A clef=alto
K:A
L:1/8
ee |: "A" (ec)cc c2 ee | (ec)cc c2 ee | "D" f2 e2 d2 c2 | "E" (dB)BB B2 dd |
(dB)BB B2 dd | (dB)BB B2 ee |1 g2 f2 e2 d2 | "A" (ec)cc c2 ee :|2 "E" g2 e2 "D" f2 g2 | "A" a4 vABcd :|
e4 "D" f4 | "A" e2 !+!e2 !+!e2 vAB | c4 "D*" d4 | "A" c2 !+!e2 !+!e2 vcc | "E" B2 A2 G2 A2 |
B6 ee |1 g2 f2 e2 d2 | "A" c4 vABcd :|2 "E" g2 e2 "D" f2 g2 | "A" [a2A2] aa a2 z2 :|
W: D* chord could be an E7.  Ending is wrong;  needs 1st & 2nd endings.

